X: 1425
T: Nasıl Geçti Habersiz...
C: Teoman Alpay
O: Turkey
F: http://compmusic.upf.edu/node/140
N: hicaz--sarki--semai--nasil_gecti--teoman_alpay
N: makam= hicaz
N: form= sarki
N: usul= semai = 3/4
M: 3/4
L: 1/16
K: C _7/8B ^f ^c 
Q: 1/4=1150
%%MIDI tuningsystem comma53
c4 d4 e4  | =f4 e4 d4  | =f12  | =f8 z4  | \
w:  ARANAĞME  |   |   |   | 
e4 d4 c4  | e4 d4 c4  | e12  | e8 z4  | A4 B4 c4  | 
w:   |   |   |   |   | 
B4 A4 G4  | B12  | B8 z4  | e4 c4 B4  | d4 B4 c4  | A12  | \
w:   |   |   |   |   |   | 
A8 z4  | c4 d4 e4  | =f4 e4 d4  | 
w:   |  ARANAĞME  |   | 
=f12  | =f8 z4  | e4 d4 c4  | e4 d4 c4  | e12  | \
w:   |   |   |   |   | 
e8 z4  | A4 B4 c4  | B4 A4 G4  | B12  | B8 z4  | 
w:   |   |   |   |   | 
e4 c4 B4  | d4 B4 c4  | A12  | A8 z4  | A4 B4 c4  | \
w:   |   |   |   |  Na sıl  geç  | 
d4 c4 d4  | e12  | A2B2 c2d2 e4  | 
w:  ti  ha ber  |  siz    |  SAZ  | 
e4 =f4 g4  | e4 d4 e4  | c12  | c8 z4  | d4 e4 f4  | \
w:  O  gü ze  |  lim  yıl la  |  rım    |   |  Ba zen  göz  | 
g4 f4 g4  | a12  | a8 z4  | a4 =b4 g4  | 
w:  ya şı  ol  |  du    |   |  Ba zen  iç  | 
f4 g4 =f4  | e12  | d2e2 f2g2 a4  | a4 g4 f4  | \
w:  li  bir  şar  |  kı    |  SAZ  |  Her  â nı  | 
g4 ^1/4f4 e4  | g12  | z2d2 e2f2 g4  | 
w:  nı  ek sik  |  siz    |  SAZ  | 
g4 a4 =f4  | e4 =f4 d4  | =f12  | z2c2 d2e2 =f4  | \
w:  Gün  gi bi   |  ha tır la  |  rım    |  SAZ  | 
e4 =f4 g4  | e4 d4 e4  | c12  | c8 z4  | 
w:  Du dak la  |  rım da  tu  |  zu    |   | 
e4 c4 B4  | d4 B4 c4  | A12  | d2e2 f2g2 a4  | \
w:  İ çim de   |  du rur  aş  |  kın    |  SAZ  | 
a4 g4 f4  | g4 ^1/4f4 e4  | g12  | z2d2 e2f2 g4  | 
w:  Her  â nı  |  nı  ek sik  |  siz    |  SAZ  | 
g4 a4 =f4  | e4 =f4 d4  | =f12  | z2c2 d2e2 =f4  | \
w:  Gün  gi bi   |  ha tır la  |  rım    |  SAZ  | 
e4 =f4 g4  | e4 d4 e4  | c12  | c8 z4  | 
w:  Du dak la  |  rım da  tu  |  zu    |   | 
e4 c4 B4  | d4 B4 c4  | A12  | A8 z4  | a4 a8  | a12  | \
w:  İ çim de   |  du rur  aş  |  kın    |  SAZ  |  Ha ni   |  o   | 
a6a2 a4  | a12  | =b4 g4 f4  | g4 ^1/4f4 e4  | 
w:  saç la rı  |  na    |  Taç  yap tı  |  ğım  çi çek  | 
e12  | e4 =f4 ^f4  | g4 g8  | g12  | g4 g4 g4  | g12  | \
w:  ler    |  SAZ  |  Ha ni   |  o   |  gü zel  göz  |  lü    | 
a4 =f4 e4  | =f4 e4 d4  | d12  | z2A2 B2c2 d4  | 
w:  Cey lan la  |  rın  pı na  |  rı    |  SAZ  | 
c4 d4 e4  | =f4 e4 d4  | =f12  | =f8 z4  | \
w:  Ha ni  kuş  |  lar  a ğaç  |  lar    |   | 
e4 d4 c4  | e4 d4 c4  | e12  | e8 z4  | A4 B4 c4  | 
w:  Bin bir  renk  |  li  çi çek  |  ler    |   |  Na sıl  ya  | 
B4 A4 G4  | B12  | B8 z4  | e6c2 B4  | d4 B4 c4  | A12  | \
w:  ka la mış  |  tık    |   |  Saç la rın  |  dan  ba hâ  |  rı    | 
A8 z4  | c4 d4 e4  | =f4 e4 d4  | 
w:   |  Ha ni  kuş  |  lar  a ğaç  | 
=f12  | =f8 z4  | e4 d4 c4  | e4 d4 c4  | e12  | \
w:  lar    |   |  Bin bir  renk  |  li  çi çek  |  ler    | 
e8 z4  | A4 B4 c4  | B4 A4 G4  | B12  | B8 z4  | 
w:   |  Na sıl  ya  |  ka la mış  |  tık    |   | 
e6c2 B4  | d4 B4 c4  | A12  | A8 z4  | c4 d4 e4  | \
w:  Saç la rın  |  dan  ba hâ  |  rı    |   |  ARANAĞME  | 
=f4 e4 d4  | =f12  | =f8 z4  | e4 d4 c4  | 
w:   |   |   |   | 
e4 d4 c4  | e12  | e8 z4  | A4 B4 c4  | B4 A4 G4  | B12  | \
w:   |   |   |   |   |   | 
B8 z4  | e4 c4 B4  | d4 B4 c4  | 
w:   |   |   | 
A12  | A8 z4  | c4 d4 e4  | =f4 e4 d4  | =f12  | \
w:   |   |  ARANAĞME  |   |   | 
=f8 z4  | e4 d4 c4  | e4 d4 c4  | e12  | e8 z4  | 
w:   |   |   |   |   | 
A4 B4 c4  | B4 A4 G4  | B12  | B8 z4  | e4 c4 B4  | \
w:   |   |   |   |   | 
d4 B4 c4  | A12  | A8 z4  | A4 B4 c4  | 
w:   |   |   |  Na sıl  geç  | 
d4 c4 d4  | e12  | A2B2 c2d2 e4  | e4 =f4 g4  | \
w:  ti  ha ber  |  siz    |  SAZ  |  O  gü ze  | 
e4 d4 e4  | c12  | c8 z4  | d4 e4 f4  | 
w:  lim  yıl la  |  rım    |   |  Ba zen  göz  | 
g4 f4 g4  | a12  | a8 z4  | a4 =b4 g4  | f4 g4 =f4  | e12  | \
w:  ya şı  ol  |  du    |   |  Ba zen  iç  |  li  bir  şar  |  kı    | 
d2e2 f2g2 a4  | a4 g4 f4  | 
w:  SAZ  |  Her  â nı  | 
g4 ^1/4f4 e4  | g12  | z2d2 e2f2 g4  | g4 a4 =f4  | \
w:  nı  ek sik  |  siz    |  SAZ  |  Gün  gi bi   | 
e4 =f4 d4  | =f12  | z2c2 d2e2 =f4  | 
w:  ha tır la  |  rım    |  SAZ  | 
e4 =f4 g4  | e4 d4 e4  | c12  | c8 z4  | e4 c4 B4  | \
w:  Du dak la  |  rım da  tu  |  zu    |   |  İ çim de   | 
d4 B4 c4  | A12  | d2e2 f2g2 a4  | 
w:  du rur  aş  |  kın    |  SAZ  | 
a4 g4 f4  | g4 ^1/4f4 e4  | g12  | z2d2 e2f2 g4  | \
w:  Her  â nı  |  nı  ek sik  |  siz    |  SAZ  | 
g4 a4 =f4  | e4 =f4 d4  | =f12  | z2c2 d2e2 =f4  | 
w:  Gün  gi bi   |  ha tır la  |  rım    |  SAZ  | 
e4 =f4 g4  | e4 d4 e4  | c12  | c8 z4  | e4 c4 B4  | \
w:  Du dak la  |  rım da  tu  |  zu    |   |  İ çim de   | 
d4 B4 c4  | A12  | A8 z4  | a4 a8  | a12  | 
w:  du rur  aş  |  kın    |  SAZ  |  Ha ni   |  o   | 
a6a2 a4  | a12  | =b4 g4 f4  | g4 ^1/4f4 e4  | e12  | \
w:  saç la rı  |  na    |  Taç  yap tı  |  ğım  çi çek  |  ler    | 
e4 =f4 ^f4  | g4 g8  | g12  | g4 g4 g4  | g12  | 
w:  SAZ  |  Ha ni   |  o   |  gü zel  göz  |  lü    | 
a4 =f4 e4  | =f4 e4 d4  | d12  | z2A2 B2c2 d4  | \
w:  Cey lan la  |  rın  pı na  |  rı    |  SAZ  | 
c4 d4 e4  | =f4 e4 d4  | =f12  | =f8 z4  | 
w:  Ha ni  kuş  |  lar  a ğaç  |  lar    |   | 
e4 d4 c4  | e4 d4 c4  | e12  | e8 z4  | A4 B4 c4  | \
w:  Bin bir  renk  |  li  çi çek  |  ler    |   |  Na sıl  ya  | 
B4 A4 G4  | B12  | B8 z4  | e6c2 B4  | 
w:  ka la mış  |  tık    |   |  Saç la rın  | 
d4 B4 c4  | A12  | A8 z4  | c4 d4 e4  | =f4 e4 d4  | =f12  | \
w:  dan  ba hâ  |  rı    |   |  Ha ni  kuş  |  lar  a ğaç  |  lar    | 
=f8 z4  | e4 d4 c4  | e4 d4 c4  | 
w:   |  Bin bir  renk  |  li  çi çek  | 
e12  | e8 z4  | A4 B4 c4  | B4 A4 G4  | B12  | \
w:  ler    |   |  Na sıl  ya  |  ka la mış  |  tık    | 
B8 z4  | e6c2 B4  | d4 B4 c4  | A12  | A8 z4  | 
w:   |  Saç la rın  |  dan  ba hâ  |  rı    |   | 
|


